packages/foundations/assets/icons/functional/images/file/image_12.svg

<svg width="12" height="12" viewBox="0 0 12 12" fill="none" xmlns="http://www.w3.org/2000/svg">
<g clip-path="url(#clip0_232_233)">
<path fill-rule="evenodd" clip-rule="evenodd" d="M8.99993 1.79999C9.63254 1.79999 10.2034 2.35818 10.2 3V9C10.2 9.63261 9.63126 10.2041 8.99993 10.2H2.99993C2.36731 10.2 1.80311 9.65952 1.79993 9V3C1.79993 2.36738 2.35959 1.80103 2.99993 1.79999H8.99993ZM7.79993 6.8484L6.42419 8.22426C6.28135 8.36711 6.07766 8.42731 5.88274 8.38845L4.24613 7.8474L2.99993 8.4702V9H8.99993V8.04852L7.79993 6.8484ZM8.99993 3H2.99993V7.1286L3.9316 6.66334C4.05021 6.60404 4.1844 6.58602 4.3132 6.61078L5.83733 7.113L7.37566 5.57573C7.60998 5.34142 7.98988 5.34142 8.22419 5.57573L8.99993 6.351V3ZM4.49993 3.6C4.99703 3.6 5.39993 4.00297 5.39993 4.5C5.39993 4.99703 4.99703 5.4 4.49993 5.4C4.00282 5.4 3.59993 4.99703 3.59993 4.5C3.59993 4.00297 4.00282 3.6 4.49993 3.6Z" fill="#1A1C1F"/>
</g>
<defs>
<clipPath id="clip0_232_233">
<rect width="12" height="12" fill="white"/>
</clipPath>
</defs>
</svg>

<svg xmlns="http://www.w3.org/2000/svg" width="12" height="12" fill="none"><g clip-path="url(#a)"><path fill="#1A1C1F" fill-rule="evenodd" d="M9 1.8c.633 0 1.203.558 1.2 1.2v6c0 .633-.569 1.204-1.2 1.2H3c-.633 0-1.197-.54-1.2-1.2V3c0-.633.56-1.199 1.2-1.2zM7.8 6.848 6.424 8.224a.6.6 0 0 1-.541.164l-1.637-.54L3 8.47V9h6v-.951zM9 3H3v4.129l.932-.466a.6.6 0 0 1 .381-.052l1.524.502 1.539-1.537a.6.6 0 0 1 .848 0L9 6.35zm-4.5.6a.9.9 0 1 1 0 1.8.9.9 0 0 1 0-1.8" clip-rule="evenodd"/></g><defs><clipPath id="a"><path fill="#fff" d="M0 0h12v12H0z"/></clipPath></defs></svg>
